svgs/sharp-solid/code-commit.svg

<svg xmlns="http://www.w3.org/2000/svg" viewBox="0 0 640 512"><!--! Font Awesome Pro 6.6.0 by @fontawesome - https://fontawesome.com License - https://fontawesome.com/license (Commercial License) Copyright 2024 Fonticons, Inc. --><path d="M256 192l0 128 128 0 0-128-128 0zm-80-80l80 0 128 0 80 0 0 80 0 32 144 0 32 0 0 64-32 0-144 0 0 32 0 80-80 0-128 0-80 0 0-80 0-32L32 288 0 288l0-64 32 0 144 0 0-32 0-80z"/></svg>

<svg xmlns="http://www.w3.org/2000/svg" viewBox="0 0 640 512"><!--! Font Awesome Pro 6.4.0 by @fontawesome - https://fontawesome.com License - https://fontawesome.com/license (Commercial License) Copyright 2023 Fonticons, Inc. --><path d="M256 192V320H384V192H256zm-80-80h80H384h80v80 32H608h32v64H608 464v32 80H384 256 176V320 288H32 0V224H32 176V192 112z"/></svg>
